svg/building/tower_fill.svg

<?xml version="1.0" encoding="UTF-8"?>
<svg width="24px" height="24px" viewBox="0 0 24 24" version="1.1" xmlns="http://www.w3.org/2000/svg" xmlns:xlink="http://www.w3.org/1999/xlink">
    <title>tower_fill</title>
    <g id="页面-1" stroke="none" stroke-width="1" fill="none" fill-rule="evenodd">
        <g id="Building" transform="translate(-912.000000, -48.000000)">
            <g id="tower_fill" transform="translate(912.000000, 48.000000)">
                 <path d="M24,0 L24,24 L0,24 L0,0 L24,0 Z M12.5934901,23.257841 L12.5819402,23.2595131 L12.5108777,23.2950439 L12.4918791,23.2987469 L12.4918791,23.2987469 L12.4767152,23.2950439 L12.4056548,23.2595131 C12.3958229,23.2563662 12.3870493,23.2590235 12.3821421,23.2649074 L12.3780323,23.275831 L12.360941,23.7031097 L12.3658947,23.7234994 L12.3769048,23.7357139 L12.4804777,23.8096931 L12.4953491,23.8136134 L12.4953491,23.8136134 L12.5071152,23.8096931 L12.6106902,23.7357139 L12.6232938,23.7196733 L12.6232938,23.7196733 L12.6266527,23.7031097 L12.609561,23.275831 C12.6075724,23.2657013 12.6010112,23.2592993 12.5934901,23.257841 L12.5934901,23.257841 Z M12.8583906,23.1452862 L12.8445485,23.1473072 L12.6598443,23.2396597 L12.6498822,23.2499052 L12.6498822,23.2499052 L12.6471943,23.2611114 L12.6650943,23.6906389 L12.6699349,23.7034178 L12.6699349,23.7034178 L12.678386,23.7104931 L12.8793402,23.8032389 C12.8914285,23.8068999 12.9022333,23.8029875 12.9078286,23.7952264 L12.9118235,23.7811639 L12.8776777,23.1665331 C12.8752882,23.1545897 12.8674102,23.1470016 12.8583906,23.1452862 L12.8583906,23.1452862 Z M12.1430473,23.1473072 C12.1332178,23.1423925 12.1221763,23.1452606 12.1156365,23.1525954 L12.1099173,23.1665331 L12.0757714,23.7811639 C12.0751323,23.7926639 12.0828099,23.8018602 12.0926481,23.8045676 L12.108256,23.8032389 L12.3092106,23.7104931 L12.3186497,23.7024347 L12.3186497,23.7024347 L12.3225043,23.6906389 L12.340401,23.2611114 L12.337245,23.2485176 L12.337245,23.2485176 L12.3277531,23.2396597 L12.1430473,23.1473072 Z" id="MingCute" fill-rule="nonzero"></path>
                <path d="M12,2 C12.51285,2 12.9355092,2.38604429 12.9932725,2.88337975 L13,3 L13,3.72302 L13.1662,4 L14,4 C14.5523,4 15,4.44772 15,5 C15,5.39222 14.774172,5.7317009 14.4454983,5.8955333 L14.3323,5.94347 L15.5662,8 L17,8 C17.5523,8 18,8.44772 18,9 C18,9.51283143 17.613973,9.93550653 17.1166239,9.9932722 L17,10 L16.0004,10 C16.6281,10.8357 17,11.8744 17,13 C17,14.6356 16.2147,16.0878 15.0005,17 C15.8964067,17.67312 16.5588556,18.6403271 16.8445895,19.7582016 L16.9,20 L19,20 C19.5523,20 20,20.4477 20,21 C20,21.51285 19.613973,21.9355092 19.1166239,21.9932725 L19,22 L5,22 C4.44772,22 4,21.5523 4,21 C4,20.48715 4.38604429,20.0644908 4.88337975,20.0067275 L5,20 L7.10002,20 C7.34767,18.78 8.03957,17.7212 8.99952,17 C7.78534,16.0878 7,14.6356 7,13 C7,11.9682 7.31253292,11.0094201 7.84810286,10.213087 L7.99963,10 L7,10 C6.44772,10 6,9.55228 6,9 C6,8.48716857 6.38604429,8.06449347 6.88337975,8.0067278 L7,8 L8.43381,8 L9.66773,5.94347 C9.27878,5.80649 9,5.4358 9,5 C9,4.48716857 9.38604429,4.06449347 9.88337975,4.0067278 L10,4 L10.8338,4 L11,3.72302 L11,3 C11,2.44772 11.4477,2 12,2 Z M12.0338,6 L11.9662,6 L10.7662,8 L13.2338,8 L12.0338,6 Z" id="形状" fill="#09244B"></path>
            </g>
        </g>
    </g>
</svg>

<svg xmlns="http://www.w3.org/2000/svg" width="24" height="24"><g fill="none" fill-rule="evenodd"><path d="M24 0v24H0V0h24ZM12.593 23.258l-.011.002-.071.035-.02.004-.014-.004-.071-.035c-.01-.004-.019-.001-.024.005l-.004.01-.017.428.005.02.01.013.104.074.015.004.012-.004.104-.074.012-.016.004-.017-.017-.427c-.002-.01-.009-.017-.017-.018Zm.265-.113-.013.002-.185.093-.01.01-.003.011.018.43.005.012.008.007.201.093c.012.004.023 0 .029-.008l.004-.014-.034-.614c-.003-.012-.01-.02-.02-.022Zm-.715.002a.023.023 0 0 0-.027.006l-.006.014-.034.614c0 .012.007.02.017.024l.015-.002.201-.093.01-.008.004-.011.017-.43-.003-.012-.01-.01-.184-.092Z"/><path fill="#09244B" d="M12 2a1 1 0 0 1 .993.883L13 3v.723l.166.277H14a1 1 0 0 1 .445 1.896l-.113.047L15.566 8H17a1 1 0 0 1 .117 1.993L17 10h-1c.628.836 1 1.874 1 3a4.992 4.992 0 0 1-2 4 5.005 5.005 0 0 1 1.845 2.758L16.9 20H19a1 1 0 0 1 .117 1.993L19 22H5a1 1 0 0 1-.117-1.993L5 20h2.1A5 5 0 0 1 9 17a4.992 4.992 0 0 1-2-4c0-1.032.313-1.99.848-2.787L8 10H7a1 1 0 0 1-.117-1.993L7 8h1.434l1.234-2.057a1 1 0 0 1 .215-1.936L10 4h.834L11 3.723V3a1 1 0 0 1 1-1Zm.034 4h-.068l-1.2 2h2.468l-1.2-2Z"/></g></svg>
